icon/pk/s-turn-up.svg

<svg width="48" height="48" fill="none" xmlns="http://www.w3.org/2000/svg"><path d="M24 31v4c0 4-3 7-7 7s-7-3-7-7V16M38 42V13c0-4-3-7-7-7s-7 3-7 7v18" stroke="#000" stroke-width="4" stroke-linecap="round" stroke-linejoin="round"/><path d="m33 37 5 5 5-5" stroke="#000" stroke-width="4" stroke-linecap="round" stroke-linejoin="round"/><circle cx="10" cy="11" r="5" transform="rotate(-180 10 11)" fill="#2F88FF" stroke="#000" stroke-width="4"/></svg>

<svg viewBox="0 0 48 48" fill="none" xmlns="http://www.w3.org/2000/svg" height="1em" width="1em">
  <path d="M24 31L24 35C24 39 21 42 17 42C13 42 10 39 10 35L10 16" stroke="black" stroke-width="4" stroke-linecap="round" stroke-linejoin="round"/>
  <path d="M38 42L38 13C38 8.99999 35 5.99999 31 5.99999C27 5.99999 24 8.99999 24 13L24 31" stroke="black" stroke-width="4" stroke-linecap="round" stroke-linejoin="round"/>
  <path d="M33 37L38 42L43 37" stroke="black" stroke-width="4" stroke-linecap="round" stroke-linejoin="round"/>
  <circle cx="10" cy="10.9999" r="5" transform="rotate(-180 10 10.9999)" fill="#2F88FF" stroke="black" stroke-width="4"/>
</svg>
